24x24/actions/distribute-vertical-top.svg

<svg xmlns="http://www.w3.org/2000/svg" viewBox="0 0 24 24"><path style="fill:currentColor;fill-opacity:1;stroke:none;color:#5d656b" d="M4 4v1h4v6h7V5h2V4H4zm5 1h5v5H9V5zm9 0-2 3h4l-2-3zm-2 5 2 3 2-3h-4zM4 13v1h2v6h9v-6h2v-1H4zm3 1h7v5H7v-5z"/></svg>

<svg xmlns="http://www.w3.org/2000/svg" viewBox="0 0 24 24">
  <defs id="defs3051">
    <style type="text/css" id="current-color-scheme">
      .ColorScheme-Text {
        color:#5d656b;
      }
      </style>
  </defs>
 <path style="fill:currentColor;fill-opacity:1;stroke:none" 
     d="M 4 4 L 4 5 L 8 5 L 8 11 L 15 11 L 15 5 L 17 5 L 17 4 L 14 4 L 8 4 L 4 4 z M 9 5 L 14 5 L 14 10 L 9 10 L 9 5 z M 18 5 L 16 8 L 20 8 L 18 5 z M 16 10 L 18 13 L 20 10 L 16 10 z M 4 13 L 4 14 L 6 14 L 6 20 L 15 20 L 15 14 L 17 14 L 17 13 L 14 13 L 6 13 L 4 13 z M 7 14 L 14 14 L 14 19 L 7 19 L 7 14 z "
     class="ColorScheme-Text"
     />
</svg>
